Newaita-dark/actions/22/draw-path.svg

<?xml version="1.0" encoding="UTF-8"?>
<svg xmlns="http://www.w3.org/2000/svg" xmlns:xlink="http://www.w3.org/1999/xlink" width="22pt" height="22pt" viewBox="0 0 22 22" version="1.1">
<g id="surface1">
<path style=" stroke:none;fill-rule:nonzero;fill:rgb(74.117649%,74.117649%,74.117649%);fill-opacity:1;" d="M 13.128906 3.726562 L 3.636719 13.21875 L 3.636719 4.71875 L 1.820312 4.71875 L 1.820312 15.179688 L 1.84375 15.179688 L 0.910156 21.09375 L 6.820312 20.160156 L 6.820312 20.183594 L 17.28125 20.183594 L 17.28125 18.363281 L 8.785156 18.363281 L 18.277344 8.871094 Z M 13.128906 6.300781 L 15.703125 8.871094 L 8.304688 16.269531 L 5.734375 13.695312 Z M 13.128906 6.300781 "/>
<path style=" stroke:none;fill-rule:nonzero;fill:rgb(14.901961%,65.098041%,60.392159%);fill-opacity:1;" d="M 18.191406 17.453125 C 17.6875 17.453125 17.28125 17.859375 17.28125 18.363281 L 17.28125 20.183594 C 17.28125 20.6875 17.6875 21.09375 18.191406 21.09375 L 20.011719 21.09375 C 20.515625 21.09375 20.921875 20.6875 20.921875 20.183594 L 20.921875 18.363281 C 20.921875 17.859375 20.515625 17.453125 20.011719 17.453125 Z M 18.875 18.820312 L 19.328125 18.820312 C 19.453125 18.820312 19.554688 18.921875 19.554688 19.046875 L 19.554688 19.5 C 19.554688 19.625 19.453125 19.726562 19.328125 19.726562 L 18.875 19.726562 C 18.75 19.726562 18.648438 19.625 18.648438 19.5 L 18.648438 19.046875 C 18.648438 18.921875 18.75 18.820312 18.875 18.820312 Z M 18.875 18.820312 "/>
<path style=" stroke:none;fill-rule:nonzero;fill:rgb(14.901961%,65.098041%,60.392159%);fill-opacity:1;" d="M 1.820312 1.082031 C 1.316406 1.082031 0.910156 1.488281 0.910156 1.992188 L 0.910156 3.808594 C 0.910156 4.3125 1.316406 4.71875 1.820312 4.71875 L 3.636719 4.71875 C 4.140625 4.71875 4.546875 4.3125 4.546875 3.808594 L 4.546875 1.992188 C 4.546875 1.488281 4.140625 1.082031 3.636719 1.082031 Z M 2.5 2.445312 L 2.957031 2.445312 C 3.082031 2.445312 3.183594 2.546875 3.183594 2.671875 L 3.183594 3.128906 C 3.183594 3.253906 3.082031 3.355469 2.957031 3.355469 L 2.5 3.355469 C 2.375 3.355469 2.273438 3.253906 2.273438 3.128906 L 2.273438 2.671875 C 2.273438 2.546875 2.375 2.445312 2.5 2.445312 Z M 2.5 2.445312 "/>
</g>
</svg>

<svg xmlns="http://www.w3.org/2000/svg" width="22pt" height="22pt" viewBox="0 0 22 22"><path d="M13.129 3.727l-9.492 9.492v-8.5H1.82v10.46h.024L.91 21.095l5.91-.934v.024h10.461v-1.82H8.785l9.492-9.493zm0 2.574l2.574 2.57-7.398 7.399-2.57-2.575zm0 0" fill="#bdbdbd"/><path d="M18.191 17.453a.909.909 0 0 0-.91.91v1.82c0 .505.407.91.91.91h1.82c.505 0 .91-.405.91-.91v-1.82a.909.909 0 0 0-.91-.91zm.684 1.367h.453c.125 0 .227.102.227.227v.453a.227.227 0 0 1-.227.227h-.453a.227.227 0 0 1-.227-.227v-.453c0-.125.102-.227.227-.227zm0 0M1.82 1.082a.909.909 0 0 0-.91.91V3.81c0 .503.406.91.91.91h1.817c.504 0 .91-.407.91-.91V1.992a.909.909 0 0 0-.91-.91zm.68 1.363h.457c.125 0 .227.102.227.227v.457a.227.227 0 0 1-.227.226H2.5a.227.227 0 0 1-.227-.226v-.457c0-.125.102-.227.227-.227zm0 0" fill="#26a69a"/></svg>
